static/img/kroki/e040b39d71822e3ae58cf4f67841f857.svg

<?xml version="1.0" encoding="us-ascii" standalone="no"?><svg xmlns="http://www.w3.org/2000/svg" xmlns:xlink="http://www.w3.org/1999/xlink" contentStyleType="text/css" height="252px" preserveAspectRatio="none" style="width:523px;height:252px;" version="1.1" viewBox="0 0 523 252" width="523px" zoomAndPan="magnify"><defs/><g><!--class azure_cosmos_db_cassandra_cluster--><g id="elem_azure_cosmos_db_cassandra_cluster"><rect codeLine="23" fill="#3D176E" height="39.7891" id="azure_cosmos_db_cassandra_cluster" rx="2.5" ry="2.5" style="stroke:#000D19;stroke-width:0.5;" width="343" x="7" y="106.79"/><ellipse cx="22" cy="126.6845" fill="#ADD1B2" rx="11" ry="11" style="stroke:#181818;stroke-width:1.0;"/><path d="M24.9688,132.3252 Q24.3906,132.622 23.75,132.7627 Q23.1094,132.9189 22.4063,132.9189 Q19.9063,132.9189 18.5781,131.2783 Q17.2656,129.622 17.2656,126.497 Q17.2656,123.372 18.5781,121.7158 Q19.9063,120.0595 22.4063,120.0595 Q23.1094,120.0595 23.75,120.2158 Q24.4063,120.372 24.9688,120.6689 L24.9688,123.3877 Q24.3438,122.8095 23.75,122.5439 Q23.1563,122.2627 22.5313,122.2627 Q21.1875,122.2627 20.5,123.3408 Q19.8125,124.4033 19.8125,126.497 Q19.8125,128.5908 20.5,129.6689 Q21.1875,130.7314 22.5313,130.7314 Q23.1563,130.7314 23.75,130.4658 Q24.3438,130.1845 24.9688,129.6064 L24.9688,132.3252 Z " fill="#000000"/><text fill="#D9B8FF" font-family="Helvetica" font-size="17" lengthAdjust="spacing" textLength="301" x="41" y="132.5698">azure_cosmos_db_cassandra_cluster</text></g><!--class azure_cosmos_db_cassandra_cluster_data_center--><g id="elem_azure_cosmos_db_cassandra_cluster_data_center"><rect codeLine="26" fill="#3D176E" height="39.7891" id="azure_cosmos_db_cassandra_cluster_data_center" rx="2.5" ry="2.5" style="stroke:#000D19;stroke-width:0.5;" width="451" x="65" y="206.58"/><ellipse cx="80" cy="226.4745" fill="#ADD1B2" rx="11" ry="11" style="stroke:#181818;stroke-width:1.0;"/><path d="M82.9688,232.1152 Q82.3906,232.412 81.75,232.5527 Q81.1094,232.7089 80.4063,232.7089 Q77.9063,232.7089 76.5781,231.0683 Q75.2656,229.412 75.2656,226.287 Q75.2656,223.162 76.5781,221.5058 Q77.9063,219.8495 80.4063,219.8495 Q81.1094,219.8495 81.75,220.0058 Q82.4063,220.162 82.9688,220.4589 L82.9688,223.1777 Q82.3438,222.5995 81.75,222.3339 Q81.1563,222.0527 80.5313,222.0527 Q79.1875,222.0527 78.5,223.1308 Q77.8125,224.1933 77.8125,226.287 Q77.8125,228.3808 78.5,229.4589 Q79.1875,230.5214 80.5313,230.5214 Q81.1563,230.5214 81.75,230.2558 Q82.3438,229.9745 82.9688,229.3964 L82.9688,232.1152 Z " fill="#000000"/><text fill="#D9B8FF" font-family="Helvetica" font-size="17" lengthAdjust="spacing" textLength="409" x="99" y="232.3598">azure_cosmos_db_cassandra_cluster_data_center</text></g><!--class azure_network_subnet--><g id="elem_azure_network_subnet"><rect codeLine="29" fill="#3D176E" height="39.7891" id="azure_network_subnet" rx="2.5" ry="2.5" style="stroke:#000D19;stroke-width:0.5;" width="233" x="174" y="7"/><ellipse cx="189" cy="26.8945" fill="#ADD1B2" rx="11" ry="11" style="stroke:#181818;stroke-width:1.0;"/><path d="M191.9688,32.5352 Q191.3906,32.832 190.75,32.9727 Q190.1094,33.1289 189.4063,33.1289 Q186.9063,33.1289 185.5781,31.4883 Q184.2656,29.832 184.2656,26.707 Q184.2656,23.582 185.5781,21.9258 Q186.9063,20.2695 189.4063,20.2695 Q190.1094,20.2695 190.75,20.4258 Q191.4063,20.582 191.9688,20.8789 L191.9688,23.5977 Q191.3438,23.0195 190.75,22.7539 Q190.1563,22.4727 189.5313,22.4727 Q188.1875,22.4727 187.5,23.5508 Q186.8125,24.6133 186.8125,26.707 Q186.8125,28.8008 187.5,29.8789 Q188.1875,30.9414 189.5313,30.9414 Q190.1563,30.9414 190.75,30.6758 Q191.3438,30.3945 191.9688,29.8164 L191.9688,32.5352 Z " fill="#000000"/><text fill="#D9B8FF" font-family="Helvetica" font-size="17" lengthAdjust="spacing" textLength="191" x="208" y="32.7798">azure_network_subnet</text></g><!--link azure_cosmos_db_cassandra_cluster to azure_cosmos_db_cassandra_cluster_data_center--><g id="link_azure_cosmos_db_cassandra_cluster_azure_cosmos_db_cassandra_cluster_data_center"><path codeLine="32" d="M200.63,147.01 C220.26,164.15 244.2814,185.1126 263.9014,202.2526 " fill="none" id="azure_cosmos_db_cassandra_cluster-to-azure_cosmos_db_cassandra_cluster_data_center" style="stroke:#1A83AF;stroke-width:2.0;"/><polygon fill="#1A83AF" points="268.42,206.2,264.2737,197.2664,264.6545,202.9105,259.0105,203.2912,268.42,206.2" style="stroke:#1A83AF;stroke-width:2.0;"/></g><!--link azure_network_subnet to azure_cosmos_db_cassandra_cluster--><g id="link_azure_network_subnet_azure_cosmos_db_cassandra_cluster"><path codeLine="33" d="M268.37,47.22 C248.74,64.36 224.7186,85.3226 205.0986,102.4626 " fill="none" id="azure_network_subnet-to-azure_cosmos_db_cassandra_cluster" style="stroke:#1A83AF;stroke-width:2.0;"/><polygon fill="#1A83AF" points="200.58,106.41,209.9895,103.5012,204.3455,103.1205,204.7263,97.4764,200.58,106.41" style="stroke:#1A83AF;stroke-width:2.0;"/></g><!--link azure_network_subnet to azure_cosmos_db_cassandra_cluster_data_center--><g id="link_azure_network_subnet_azure_cosmos_db_cassandra_cluster_data_center"><path codeLine="34" d="M318.15,47.14 C335.94,61.31 357.54,82.33 367.5,106.79 C374.17,123.17 374.17,130.2 367.5,146.58 C357.54,171.04 340.6332,188.3218 322.8432,202.4918 " fill="none" id="azure_network_subnet-to-azure_cosmos_db_cassandra_cluster_data_center" style="stroke:#1A83AF;stroke-width:2.0;"/><polygon fill="#1A83AF" points="318.15,206.23,327.6819,203.7515,322.061,203.1148,322.6976,197.4939,318.15,206.23" style="stroke:#1A83AF;stroke-width:2.0;"/></g><!--SRC=[hP9VIyCm5CNV-oa2Unwi3btt8jJ1q9SXpZUHSflSRA5jCcvIooP-TrkhahNxuy2tvfvVppatPAq4CYmsRiiAB58a6zXCwGqG52mcCjNCv8ROG4gGuqbNd1ljpW8BA93TO_w6Jd7e4izhnJEDrh8hJxe3dgt8b5gqzev0srf2xJngbeEriNEaqjAXLqPCqqZABjar7On5EBd17cP887qZez58XDCkSZRgvDw_n5Bja8N-fIsCmrxDNiGNTR9bGtWbUul-w4SxFe8GIg_OjJTxQZkHHjgRBzSWJDNG4dBhnrY7XCPjDpZhRONJICZ9GVZX61pmvkeOx4h2X1jR69k8DE7r4BGWI7XUDZRiFGW-_Wed0bnzg9_MeHyrkifGbjWohJzR_Np-y6KGnj4udhyERozh41oClSplFppsEdq2]--></g></svg>

<svg xmlns="http://www.w3.org/2000/svg" width="523" height="252" viewBox="0 0 523 252"><rect width="343" height="39.789" x="7" y="106.79" fill="#3D176E" rx="2.5" ry="2.5" style="stroke:#000d19;stroke-width:.5"/><circle cx="22" cy="126.684" r="11" fill="#ADD1B2" style="stroke:#181818;stroke-width:1"/><path d="M24.969 132.325q-.578.297-1.219.438-.64.156-1.344.156-2.5 0-3.828-1.64-1.312-1.657-1.312-4.782t1.312-4.781q1.328-1.656 3.828-1.656.703 0 1.344.156.656.156 1.219.453v2.719q-.625-.579-1.219-.844-.594-.281-1.219-.281-1.343 0-2.031 1.078-.687 1.062-.687 3.156t.687 3.172q.688 1.062 2.031 1.062.625 0 1.219-.265.594-.281 1.219-.86z"/><text x="41" y="132.57" fill="#D9B8FF" font-family="Helvetica" font-size="17" textLength="301">azure_cosmos_db_cassandra_cluster</text><rect width="451" height="39.789" x="65" y="206.58" fill="#3D176E" rx="2.5" ry="2.5" style="stroke:#000d19;stroke-width:.5"/><circle cx="80" cy="226.475" r="11" fill="#ADD1B2" style="stroke:#181818;stroke-width:1"/><path d="M82.969 232.115q-.578.297-1.219.438-.64.156-1.344.156-2.5 0-3.828-1.64-1.312-1.657-1.312-4.782t1.312-4.781q1.328-1.656 3.828-1.656.703 0 1.344.156.656.156 1.219.453v2.719q-.625-.578-1.219-.844-.594-.281-1.219-.281-1.344 0-2.031 1.078-.687 1.062-.687 3.156t.687 3.172q.688 1.062 2.031 1.062.625 0 1.219-.265.594-.281 1.219-.86z"/><text x="99" y="232.36" fill="#D9B8FF" font-family="Helvetica" font-size="17" textLength="409">azure_cosmos_db_cassandra_cluster_data_center</text><rect width="233" height="39.789" x="174" y="7" fill="#3D176E" rx="2.5" ry="2.5" style="stroke:#000d19;stroke-width:.5"/><circle cx="189" cy="26.895" r="11" fill="#ADD1B2" style="stroke:#181818;stroke-width:1"/><path d="M191.969 32.535q-.578.297-1.219.438-.64.156-1.344.156-2.5 0-3.828-1.64-1.312-1.657-1.312-4.782t1.312-4.781q1.328-1.656 3.828-1.656.703 0 1.344.156.656.156 1.219.453v2.719q-.625-.578-1.219-.844-.594-.281-1.219-.281-1.344 0-2.031 1.078-.687 1.062-.687 3.156t.687 3.172q.688 1.062 2.031 1.062.625 0 1.219-.265.594-.281 1.219-.86z"/><text x="208" y="32.78" fill="#D9B8FF" font-family="Helvetica" font-size="17" textLength="191">azure_network_subnet</text><path fill="none" d="M200.63 147.01c19.63 17.14 43.651 38.103 63.271 55.243" style="stroke:#1a83af;stroke-width:2"/><path fill="#1A83AF" d="m268.42 206.2-4.146-8.934.38 5.645-5.644.38z" style="stroke:#1a83af;stroke-width:2"/><path fill="none" d="M268.37 47.22c-19.63 17.14-43.651 38.103-63.271 55.243" style="stroke:#1a83af;stroke-width:2"/><path fill="#1A83AF" d="m200.58 106.41 9.41-2.909-5.645-.38.381-5.645z" style="stroke:#1a83af;stroke-width:2"/><path fill="none" d="M318.15 47.14c17.79 14.17 39.39 35.19 49.35 59.65 6.67 16.38 6.67 23.41 0 39.79-9.96 24.46-26.867 41.742-44.657 55.912" style="stroke:#1a83af;stroke-width:2"/><path fill="#1A83AF" d="m318.15 206.23 9.532-2.478-5.621-.637.637-5.621z" style="stroke:#1a83af;stroke-width:2"/></svg>
